Numix-GalliumOS/16/status/screencloud-uploading.svg

<?xml version="1.0" encoding="UTF-8" standalone="no"?>
<svg
   xmlns:dc="http://purl.org/dc/elements/1.1/"
   xmlns:cc="http://creativecommons.org/ns#"
   xmlns:rdf="http://www.w3.org/1999/02/22-rdf-syntax-ns#"
   xmlns:svg="http://www.w3.org/2000/svg"
   xmlns="http://www.w3.org/2000/svg"
   xmlns:sodipodi="http://sodipodi.sourceforge.net/DTD/sodipodi-0.dtd"
   xmlns:inkscape="http://www.inkscape.org/namespaces/inkscape"
   width="16"
   height="16"
   viewBox="0 0 16 16"
   id="svg3043"
   version="1.1"
   inkscape:version="0.91 r"
   sodipodi:docname="screencloud-uploading.svg">
  <metadata
     id="metadata3081">
    <rdf:RDF>
      <cc:Work
         rdf:about="">
        <dc:format>image/svg+xml</dc:format>
        <dc:type
           rdf:resource="http://purl.org/dc/dcmitype/StillImage" />
      </cc:Work>
    </rdf:RDF>
  </metadata>
  <sodipodi:namedview
     pagecolor="#ffffff"
     bordercolor="#666666"
     borderopacity="1"
     objecttolerance="10"
     gridtolerance="10"
     guidetolerance="10"
     inkscape:pageopacity="0"
     inkscape:pageshadow="2"
     inkscape:window-width="640"
     inkscape:window-height="480"
     id="namedview3079"
     showgrid="false"
     inkscape:zoom="14.75"
     inkscape:cx="8"
     inkscape:cy="8"
     inkscape:window-x="0"
     inkscape:window-y="0"
     inkscape:window-maximized="0"
     inkscape:current-layer="svg3043" />
  <defs
     id="defs3045" />
  <path
     style="fill:#ececec;fill-opacity:1"
     inkscape:connector-curvature="0"
     id="path3071"
     d="M 5.886719,5.523438 C 3.734375,5.523438 2,7.257812 2,9.410156 2,9.496094 1.996094,9.59375 2,9.683594 c -0.757812,0.363281 -1.273438,1.105468 -1.273438,1.953125 0,1.214843 1.054688,2.179687 2.363282,2.179687 l 9.820312,0 c 1.308594,0 2.363282,-0.964844 2.363282,-2.179687 0,-0.902344 -0.574219,-1.6875 -1.410157,-2.023438 0.01953,-0.136719 0.02344,-0.265625 0.02344,-0.410156 0,-1.539063 -1.253907,-2.792969 -2.796875,-2.792969 -0.773438,0 -1.46875,0.308594 -1.976563,0.816406 C 8.414062,6.195312 7.226562,5.523438 5.886719,5.523438 z M 4.273438,6.703125 c 0.421874,0 0.773437,0.328125 0.773437,0.730469 0,0.398437 -0.351563,0.726562 -0.773437,0.726562 -0.421876,0 -0.75,-0.328125 -0.75,-0.726562 0,-0.402344 0.328124,-0.730469 0.75,-0.730469 z m 3.703124,0.570313 2.207032,3.203124 -1.34375,0 0,2.613282 -1.773438,0 0,-2.613282 -1.25,0 z" />
  <path
     style="fill:#ececec;fill-opacity:1"
     inkscape:connector-curvature="0"
     id="path3073"
     d="M 12.644531,6.351562 12.351562,6.074219 11.960938,6.160156 12.132812,5.796875 11.929688,5.449219 12.328125,5.5 12.597656,5.199219 12.671875,5.597656 13.039062,5.757812 12.6875,5.953125 z" />
  <path
     style="fill:#ececec;fill-opacity:1"
     inkscape:connector-curvature="0"
     id="path3075"
     d="m 12.96875,5.617188 0.01563,-0.1875 -0.148437,-0.121094 0.183593,-0.042969 0.07031,-0.175781 0.09766,0.164062 0.1875,0.00781 -0.121094,0.144531 0.04687,0.179688 L 13.125,5.515625 z" />
  <path
     style="fill:#ececec;fill-opacity:1"
     inkscape:connector-curvature="0"
     id="path3077"
     d="m 13.144531,6.710938 -0.03516,-0.285157 -0.257813,-0.132812 0.261719,-0.125 0.04687,-0.28125 0.195313,0.210937 0.285156,-0.042968 -0.136719,0.25 0.125,0.257812 -0.28125,-0.054688 z" />
</svg>

<svg xmlns="http://www.w3.org/2000/svg" viewBox="0 0 16 16">
 <path d="m 5.887 5.523 c -2.152 0 -3.887 1.734 -3.887 3.887 0 0.086 -0.004 0.184 0 0.273 c -0.758 0.363 -1.273 1.105 -1.273 1.953 0 1.215 1.055 2.18 2.363 2.18 l 9.82 0 c 1.309 0 2.363 -0.965 2.363 -2.18 0 -0.902 -0.574 -1.688 -1.41 -2.023 0.02 -0.137 0.023 -0.266 0.023 -0.41 0 -1.539 -1.254 -2.793 -2.797 -2.793 -0.773 0 -1.469 0.309 -1.977 0.816 c -0.699 -1.031 -1.887 -1.703 -3.227 -1.703 z m -1.613 1.18 c 0.422 0 0.773 0.328 0.773 0.73 0 0.398 -0.352 0.727 -0.773 0.727 -0.422 0 -0.75 -0.328 -0.75 -0.727 0 -0.402 0.328 -0.73 0.75 -0.73 z m 3.703 0.57 2.207 3.203 -1.344 0 0 2.613 -1.773 0 0 -2.613 -1.25 0 z" style="fill:#ececec;fill-opacity:1"/>
 <path d="m 12.645 6.352 -0.293 -0.277 -0.391 0.086 0.172 -0.363 -0.203 -0.348 0.398 0.051 0.27 -0.301 0.074 0.398 0.367 0.16 -0.352 0.195 z" style="fill:#ececec;fill-opacity:1"/>
 <path d="m 12.969 5.617 0.016 -0.188 -0.148 -0.121 0.184 -0.043 0.07 -0.176 0.098 0.164 0.188 0.008 -0.121 0.145 0.047 0.18 l -0.176 -0.07 z" style="fill:#ececec;fill-opacity:1"/>
 <path d="m 13.145 6.711 -0.035 -0.285 -0.258 -0.133 0.262 -0.125 0.047 -0.281 0.195 0.211 0.285 -0.043 -0.137 0.25 0.125 0.258 -0.281 -0.055 z" style="fill:#ececec;fill-opacity:1"/>
</svg>
